X:1
T:Title
%%score { ( 1 5 6 ) | ( 2 3 4 ) }
L:1/8
M:3/4
K:Bb
V:1 treble nm="Grand Piano"
V:5 treble 
V:6 treble 
V:2 treble 
V:3 treble 
V:4 treble 
V:1
 z2 z[Q:1/4=100] d _d=d | [DB]3 F [DG]B | [EA]3 e de | [Ec]3 G Ac |[M:3/8] [DF]3 | d_d=d | %6
[M:3/4] [DB]3 B [Fd]f | z B, EG Be | [Fd]3 B [CA]c |[M:7/16] [DB]/-[DB]/-[DB]/-[DB]-<[DB] | %10
[M:9/8] z3 F6 | Adc B2- [EB] .[B,DF]3 | z3 A6 | z3 G6 | z3 F6 | Adc B3 .D3 | BBB z ED D3 | %17
[M:3/4] dF cB- [DB-][EB-] | [DB]4 z2 |] %19
V:2
 z2 z F =EF | z F, z D z D | z F,[K:treble] CG FG | F,,F, A,E EE |[M:3/8] z F,B, | F=EF | %6
[M:3/4][K:bass] z F, z D z[K:treble] _A | E,4 G^F | z F, z D z E |[M:7/16] z F,B,3/2 | %10
[M:9/8] [B,,B,]2 [B,,B,] [F,A,E]2 [F,A,] [F,A,]2 [F,B,E] | [F,CE]2 [F,A,E] z2 G, .B,,3 | %12
 z3 .[F,CE]2 [F,C] [F,C] .F,2 | z3 [B,,B,][B,,B,][B,,B,] .[B,,B,]3 | %14
 [B,,B,]2 [=B,,_A,] [C,=A,]2 [C,A,] [C,A,]2 [C,B,] | [F,CE]2 [F,A,E] [G,B,D]3 .[G,B,]3 | %16
 [^F,_D=E]3 [=F,=D][F,C][F,B,] [F,B,]3 |[M:3/4] [F,A,E]3 [B,,B,] [B,,F,][B,,G,] | [B,,F,]4 z2 |] %19
V:3
 x6 | z2 B,2 F,2 | C,4[K:treble] z2 | x6 |[M:3/8] B,,3 | x3 |[M:3/4][K:bass] z2 B,2 z2[K:treble] | %7
 x6 | z2 F,2 F,2 |[M:7/16] B,,/-B,,/-B,,/-B,,-<B,, |[M:9/8] x9 | z3 B,,3 z3 | x9 | x9 | x9 | x9 | %16
 x9 |[M:3/4] x6 | x6 |] %19
V:4
 x6 | B,,6 | x2[K:treble] x4 | x6 |[M:3/8] x3 | x3 |[M:3/4][K:bass] B,,4 B,,2[K:treble] | x6 | %8
 F,,6 |[M:7/16] x7/2 |[M:9/8] x9 | x9 | x9 | x9 | x9 | x9 | x9 |[M:3/4] x6 | x6 |] %19
V:5
 x6 | x6 | x6 | x6 |[M:3/8] x3 | x3 |[M:3/4] x6 | G4 z2 | x6 |[M:7/16] x7/2 | %10
[M:9/8] [DF]2 [DF] z2 E E2 G | z3 .[B,D]3 z3 | BGB z EE z .C2 | AFA DDD .D3 | %14
 [DF]2 [DF] E2 E E2 [EG] | x9 | z3 F6 |[M:3/4] z2 z D z2 | x6 |] %19
V:6
 x6 | x6 | x6 | x6 |[M:3/8] x3 | x3 |[M:3/4] x6 | x6 | x6 |[M:7/16] x7/2 |[M:9/8] x9 | x9 | %12
 z3 z3 .E3 | x9 | x9 | x9 | x9 |[M:3/4] x6 | x6 |] %19

